wp-content/themes/sayenko-erickson/public/images/logo.svg

<?xml version="1.0" encoding="UTF-8"?>
<svg width="218px" height="26px" viewBox="0 0 218 26" version="1.1" xmlns="http://www.w3.org/2000/svg" xmlns:xlink="http://www.w3.org/1999/xlink">
    <!-- Generator: Sketch 61 (89581) - https://sketch.com -->
    <title>Group 26</title>
    <desc>Created with Sketch.</desc>
    <defs>
        <polygon id="path-1" points="0 0.760194535 21.8099264 0.760194535 21.8099264 19.7247877 0 19.7247877"></polygon>
        <polygon id="path-3" points="0 25.1856455 217.346479 25.1856455 217.346479 0.000107387277 0 0.000107387277"></polygon>
    </defs>
    <g id="Header" stroke="none" stroke-width="1" fill="none" fill-rule="evenodd">
        <g transform="translate(-1.000000, -45.000000)" id="Group-26">
            <g transform="translate(1.000000, 45.000000)">
                <path d="M179.632497,9.05446566 C175.925489,9.85772249 173.340677,10.4182841 173.089391,10.4730516 L173.006702,10.4880858 L172.917571,10.4977507 L172.819848,10.5041939 L172.7232,10.5063416 C172.588966,10.5063416 172.443993,10.4956029 172.292577,10.4773471 C172.137939,10.4601651 171.977932,10.435466 171.81363,10.4053976 C171.645032,10.3742553 171.476434,10.3398914 171.305688,10.3023058 C171.134942,10.2625725 170.960975,10.2228392 170.790229,10.1841798 C170.618409,10.1433726 170.448737,10.1014916 170.283361,10.0639061 C170.119058,10.0273944 169.956904,9.99195658 169.805488,9.96188815 C169.652998,9.93074584 169.508025,9.90497289 169.374865,9.88671705 C169.240631,9.87060896 169.118209,9.85987023 169.008674,9.85987023 C168.881957,9.87060896 168.756314,9.88242156 168.633892,9.89530804 C168.510397,9.90819451 168.390123,9.92537647 168.274145,9.93933682 C168.157093,9.95544491 168.044336,9.971553 167.933727,9.98873497 C167.822045,10.0069908 167.714657,10.0241728 167.612639,10.0413547 C168.253741,10.4419093 171.047958,12.1955435 175.095385,14.7341787 C176.622432,15.6920733 178.353515,16.7766848 180.230644,17.9525754 C181.444121,16.3267321 182.124956,14.5118871 182.124956,12.5939503 C182.124956,11.2430184 181.783464,9.94148456 181.160618,8.7215651 C180.635494,8.83646948 180.122183,8.94493063 179.632497,9.05446566" id="Fill-1" fill="#F48023"></path>
                <path d="M167.359528,8.12116283 C167.321942,8.18344745 167.287578,8.24787982 167.25214,8.31660767 C167.217776,8.38104004 167.182339,8.45084177 167.150122,8.52171737 C167.115758,8.59259298 167.084616,8.66239471 167.053474,8.73219644 C167.022332,8.80414591 166.992263,8.87394764 166.965416,8.94160163 C167.763304,8.77407748 171.136338,8.06961694 175.667007,7.12246115 C176.867597,6.87117492 178.147653,6.6037806 179.47496,6.32564756 C177.582796,4.24770375 174.776767,2.54346766 171.401585,1.42986159 C171.333931,1.654301 171.268424,1.87659267 171.20614,2.09136722 C170.542486,4.33683519 170.065687,5.96375243 170.017363,6.12375948 C169.969038,6.28376652 169.802588,6.45451229 169.573853,6.62847968 C169.344044,6.80137319 169.049803,6.97963607 168.751267,7.15252959 C168.45273,7.32864473 168.146676,7.50046437 167.896464,7.66369303 C167.64303,7.82799556 167.44329,7.98263324 167.359528,8.12116283" id="Fill-3" fill="#F48023"></path>
                <path d="M163.237037,5.5749031 C163.417448,5.68658587 163.547387,5.8669965 163.650478,6.08606654 C163.754644,6.30621046 163.828741,6.56179218 163.899617,6.82274326 C163.969419,7.0815466 164.031703,7.34464543 164.112244,7.5744542 C164.192784,7.80426298 164.290507,7.99863395 164.423667,8.11783382 C164.484878,8.17152746 164.547162,8.22629497 164.612668,8.28106249 C164.681396,8.33475612 164.750124,8.39167138 164.825295,8.44536502 C164.896171,8.49905866 164.969194,8.55490004 165.044365,8.60966755 C165.117389,8.66228732 165.191486,8.71598096 165.263435,8.76752685 C165.452437,8.21877787 166.233142,5.96901441 167.231844,3.08673989 C167.509977,2.28133531 167.805292,1.43297583 168.105977,0.565286627 C166.230995,0.196948266 164.236813,0.000429549108 162.169608,0.000429549108 C159.779167,0.000429549108 157.487523,0.266749996 155.362328,0.752140489 C156.521037,1.46089652 157.629274,2.14173185 158.635493,2.75706095 C161.217083,4.33887554 163.054479,5.46322033 163.237037,5.5749031" id="Fill-5" fill="#F48023"></path>
                <path d="M158.795822,9.25946797 L158.880658,9.24443375 L158.968715,9.23369502 L159.061068,9.22832566 L159.158791,9.22725178 C159.289803,9.22725178 159.430481,9.23691664 159.578675,9.2540986 C159.724722,9.27128057 159.881507,9.29597964 160.039366,9.32604808 C160.199373,9.35719039 160.363676,9.39262819 160.526905,9.42913987 C160.692281,9.46672541 160.858731,9.50538483 161.023034,9.546192 C161.189484,9.58485142 161.350565,9.62565858 161.508424,9.66217026 C161.666284,9.6997558 161.820921,9.73304586 161.969116,9.76418817 C162.116236,9.79425661 162.257988,9.81788181 162.390074,9.83613765 C162.520013,9.85224574 162.642434,9.86298446 162.750895,9.86298446 C162.885129,9.85224574 163.015068,9.84150701 163.140711,9.82754666 C163.26528,9.81466019 163.387702,9.7985521 163.504754,9.78351788 C163.62288,9.76633592 163.737784,9.75022782 163.848393,9.73304586 C163.957928,9.71479002 164.066389,9.69760806 164.170555,9.67935222 C163.559521,9.28846253 161.020886,7.65939754 157.707989,5.53312945 C155.912473,4.38086397 153.918292,3.09973375 151.888672,1.79927383 C146.091907,4.00178688 142.215226,8.01162781 142.215226,12.592769 L142.217374,12.6636447 C145.8127,11.9248202 149.143853,11.2418371 151.851087,10.6866449 C155.845893,9.86405834 158.539166,9.31101386 158.795822,9.25946797" id="Fill-7" fill="#F48023"></path>
                <path d="M168.865419,14.6744714 C168.65494,14.534868 168.493859,14.3093547 168.362847,14.0387387 C168.233982,13.7724183 168.134112,13.4642168 168.042833,13.1560153 C167.952628,12.8521093 167.868865,12.5503511 167.771143,12.2904739 C167.675568,12.0348921 167.563886,11.8179698 167.416765,11.6858835 C167.35448,11.6278944 167.285753,11.5677575 167.212729,11.5097684 C167.141854,11.4485576 167.066682,11.3894946 166.989364,11.3282839 C166.914193,11.2692209 166.8358,11.2112317 166.756333,11.1532426 C166.681162,11.0963273 166.603843,11.040486 166.528672,10.9857184 C166.316045,11.6493718 165.465538,14.3029114 164.211255,18.2032173 C163.579818,20.1823649 162.821663,22.5427372 161.973304,25.1823165 C162.039884,25.1823165 162.104316,25.1855381 162.169823,25.1855381 C168.449831,25.1855381 174.051151,23.3535111 177.708762,20.4905663 C176.646701,19.7936229 175.656591,19.1417821 174.758833,18.5511521 C171.328883,16.2949454 169.078046,14.8151487 168.865419,14.6744714" id="Fill-9" fill="#F48023"></path>
                <path d="M163.769786,12.1487227 C164.044697,11.9650904 164.261619,11.7921969 164.358268,11.6375592 C164.398001,11.5752746 164.434513,11.5086945 164.472098,11.4399666 C164.509684,11.3701649 164.546196,11.301437 164.583781,11.2294876 C164.618145,11.158612 164.652509,11.0855886 164.685799,11.014713 C164.720163,10.9438374 164.751305,10.8729618 164.782448,10.8042339 C163.944827,10.981423 160.367757,11.7417249 155.347402,12.8102283 C151.762814,13.572678 147.403965,14.500504 142.751948,15.4895408 C144.457258,20.0567217 150.092942,23.6606388 157.286816,24.8043133 C158.029936,22.8101315 158.695737,21.0242811 159.256298,19.523007 C160.475144,16.2552121 161.257997,14.1514954 161.332094,13.9539028 C161.404044,13.7584579 161.609154,13.5522744 161.878696,13.3471647 C162.148238,13.1409811 162.481138,12.9337237 162.819408,12.7307617 C163.154457,12.5299475 163.491653,12.3345026 163.769786,12.1487227" id="Fill-11" fill="#F48023"></path>
                <g id="Group-15" transform="translate(0.000000, 1.560445)">
                    <mask id="mask-2" fill="white">
                        <use xlink:href="#path-1"></use>
                    </mask>
                    <g id="Clip-14"></g>
                    <polygon id="Fill-13" fill="#4E5154" mask="url(#mask-2)" points="6.01433184 12.1282117 20.6458483 12.1282117 20.6458483 8.19891122 6.01433184 8.19891122 6.01433184 5.16092515 21.45877 5.16092515 21.45877 0.760194535 -0.000429549108 0.760194535 -0.000429549108 19.7247877 21.8099264 19.7247877 21.8099264 15.1672716 6.01433184 15.1672716"></polygon>
                </g>
                <path d="M43.083883,9.65433099 C43.083883,11.0170755 42.4878836,11.6452911 40.8620402,11.6452911 L30.9190522,11.6452911 L30.9190522,7.03622917 L40.3218822,7.03622917 C42.2172676,7.03622917 43.083883,7.34980002 43.083883,9.02504154 L43.083883,9.65433099 Z M43.0570361,2.32085383 L24.9042908,2.32085383 L24.9042908,21.2843731 L30.9190522,21.2843731 L30.9190522,16.3606664 L40.3755758,16.3606664 C42.2451883,16.3606664 42.8411877,17.0157288 42.8411877,19.0066889 L42.8411877,21.2843731 L48.8559491,21.2843731 L48.8559491,18.0627548 C48.8559491,14.9474499 47.3643398,14.187148 45.5774155,13.8714294 L45.5774155,13.8188096 C48.341564,13.1916679 48.9375634,11.6979109 48.9375634,9.15927564 L48.9375634,7.95224264 C48.9375634,4.54699209 47.6897233,2.32085383 43.0570361,2.32085383 L43.0570361,2.32085383 Z" id="Fill-16" fill="#4E5154"></path>
                <mask id="mask-4" fill="white">
                    <use xlink:href="#path-3"></use>
                </mask>
                <g id="Clip-19"></g>
                <polygon id="Fill-18" fill="#4E5154" mask="url(#mask-4)" points="52.2460581 21.2874873 58.2608194 21.2874873 58.2608194 2.32074645 52.2460581 2.32074645"></polygon>
                <path d="M77.7152059,16.6224766 L71.2955945,16.6224766 C68.4498317,16.6224766 67.8538323,15.5743768 67.8538323,12.8241886 L67.8538323,10.7806087 C67.8538323,8.42345802 68.4498317,6.98232076 71.6199041,6.98232076 L78.1769712,6.98232076 C79.9638955,6.98232076 80.9958873,7.37535819 80.9958873,8.73702886 L80.9958873,9.26215265 L87.0106487,9.26215265 C87.0643423,3.89171492 85.952884,2.11123387 77.3908964,2.11123387 L70.3183703,2.11123387 C64.8996083,2.11123387 61.6758422,3.42135865 61.6758422,8.97328087 L61.6758422,14.6315165 C61.6758422,20.1866603 64.8996083,21.4946374 70.3183703,21.4946374 L80.0197369,21.4946374 C86.0613451,21.4946374 87.2544178,18.9796274 87.2544178,15.783782 L87.2544178,14.0033009 L81.2396564,14.0033009 C81.2396564,16.3615255 80.4267347,16.6224766 77.7152059,16.6224766" id="Fill-20" fill="#4E5154" mask="url(#mask-4)"></path>
                <polygon id="Fill-21" fill="#4E5154" mask="url(#mask-4)" points="114.407291 2.32020951 106.22438 2.32020951 98.6374691 9.28749605 95.8185531 9.28749605 95.8185531 2.32020951 89.8048656 2.32020951 89.8048656 21.2848026 95.8185531 21.2848026 95.8185531 14.0017975 98.4763882 14.0017975 107.144689 21.2848026 115.652983 21.2848026 103.784541 11.5941748"></polygon>
                <path d="M128.663381,9.49754556 C128.467937,9.49754556 128.26927,9.49754556 128.067382,9.49861943 C127.501451,9.50076718 126.979549,9.50184105 126.499528,9.50184105 C121.495281,9.50184105 120.886395,9.32679979 120.886395,7.82123017 C120.886395,6.79997716 121.807778,6.35431996 123.163005,6.35431996 L129.827459,6.35431996 C132.591608,6.35431996 132.753763,6.93206351 132.753763,8.31950713 L138.769598,8.31950713 L138.769598,7.71706451 C138.769598,4.39020666 138.119905,2.11144864 131.183761,2.11144864 L122.783928,2.11144864 C115.197017,2.11144864 114.871633,4.75639728 114.871633,8.18742078 C114.871633,12.8512502 115.901477,13.89935 124.949929,13.89935 C132.698995,13.89935 133.405604,14.001368 133.405604,15.6540582 C133.405604,17.1198945 132.10407,17.2519808 130.830457,17.2519808 L123.459394,17.2519808 C121.726163,17.2519808 120.886395,17.0941215 120.860622,15.0763146 L114.844787,15.0763146 L114.844787,16.3885871 C114.844787,20.500446 117.039782,21.4937783 122.512238,21.4937783 L129.801687,21.4937783 C137.793448,21.4937783 139.583594,20.6572314 139.583594,15.5488186 C139.583594,10.1407954 137.506724,9.49754556 128.663381,9.49754556" id="Fill-22" fill="#4E5154" mask="url(#mask-4)"></path>
                <polygon id="Fill-23" fill="#4E5154" mask="url(#mask-4)" points="205.757781 16.0997154 205.703014 16.0997154 194.404799 2.31977996 185.084657 2.31977996 185.084657 21.285447 191.100492 21.285447 191.100492 7.50765932 191.152038 7.50765932 202.452401 21.285447 211.772543 21.285447 211.772543 2.31977996 205.757781 2.31977996"></polygon>
                <path d="M215.716341,3.55870698 C215.716341,3.70045818 215.611101,3.80462384 215.466128,3.80462384 L214.993624,3.80462384 L214.993624,3.31279011 L215.466128,3.31279011 C215.615397,3.31279011 215.716341,3.41158641 215.716341,3.55870698 M216.219987,3.55333761 C216.219987,3.09479394 215.85487,2.85424644 215.492975,2.85424644 L214.658576,2.85424644 C214.580183,2.85424644 214.518972,2.91653106 214.518972,2.9938499 L214.518972,4.8473543 C214.518972,4.92359927 214.580183,4.98695776 214.658576,4.98695776 L214.866907,4.98695776 C214.942078,4.98695776 215.005437,4.92359927 215.005437,4.8473543 L215.005437,4.24061619 L215.3029,4.24061619 L215.577811,4.88816147 C215.598215,4.93541187 215.647613,4.98695776 215.708824,4.98695776 L215.962257,4.98695776 C216.012729,4.98695776 216.05998,4.96011094 216.084679,4.9182299 C216.109378,4.87849661 216.109378,4.83017234 216.086827,4.78936517 C215.995548,4.5949942 215.898899,4.39095837 215.80225,4.19121804 C215.971922,4.12034243 216.219987,3.94959666 216.219987,3.55333761" id="Fill-24" fill="#4E5154" mask="url(#mask-4)"></path>
                <path d="M216.886647,3.92629363 C216.886647,4.81223866 216.166079,5.53388116 215.27906,5.53388116 C214.393115,5.53388116 213.671472,4.81223866 213.671472,3.92629363 C213.671472,3.03927472 214.393115,2.31870609 215.27906,2.31870609 C216.166079,2.31870609 216.886647,3.03927472 216.886647,3.92629363 M215.27906,1.86016241 C214.141828,1.86016241 213.219372,2.78691462 213.219372,3.92629363 C213.219372,5.06245102 214.141828,5.98705547 215.27906,5.98705547 C216.418439,5.98705547 217.346265,5.06245102 217.346265,3.92629363 C217.346265,2.78691462 216.418439,1.86016241 215.27906,1.86016241" id="Fill-25" fill="#4E5154" mask="url(#mask-4)"></path>
            </g>
        </g>
    </g>
</svg>

<svg width="218" height="26" viewBox="0 0 218 26" version="1.1" xmlns="http://www.w3.org/2000/svg" xmlns:xlink="http://www.w3.org/1999/xlink"><defs><path id="path-1" d="M0 .76h21.81v18.965H0z"/><path id="path-3" d="M0 25.186h217.346V0H0z"/></defs><g id="Header" stroke="none" stroke-width="1" fill="none" fill-rule="evenodd"><g id="Group-26"><path d="M179.632 9.054c-3.707.804-6.291 1.364-6.543 1.42l-.082.014-.09.01-.097.006-.097.002c-.134 0-.279-.01-.43-.029a6.915 6.915 0 0 1-.48-.072 15.21 15.21 0 0 1-.507-.103c-.171-.04-.345-.08-.516-.118-.172-.04-.341-.083-.507-.12a22.033 22.033 0 0 0-.478-.102 6.79 6.79 0 0 0-.43-.075 3.146 3.146 0 0 0-.366-.027c-.127.01-.253.022-.375.035-.124.013-.244.03-.36.044-.117.016-.23.033-.34.05l-.321.052c.64.4 3.435 2.155 7.482 4.693l5.136 3.219c1.213-1.626 1.894-3.441 1.894-5.359 0-1.351-.342-2.653-.964-3.872-.526.114-1.039.223-1.529.332" id="Fill-1" fill="#F48023"/><path d="M167.36 8.121a3.325 3.325 0 0 0-.108.196 3.65 3.65 0 0 0-.102.205c-.034.07-.065.14-.097.21a7.496 7.496 0 0 0-.088.21c.798-.168 4.171-.872 8.702-1.82l3.808-.796c-1.892-2.078-4.698-3.783-8.073-4.896a65.76 65.76 0 0 0-.196.661c-.664 2.246-1.14 3.873-1.189 4.033-.048.16-.214.33-.443.504a8.55 8.55 0 0 1-.823.525c-.298.176-.604.347-.855.51-.253.165-.453.32-.536.458" id="Fill-3" fill="#F48023"/><path d="M163.237 5.575c.18.112.31.292.413.511.105.22.179.476.25.737.07.259.132.522.212.751.08.23.179.425.312.544.06.054.123.108.189.163.068.054.137.11.212.164.071.054.144.11.22.165l.218.158 1.969-5.681c.278-.806.573-1.654.874-2.522A30.857 30.857 0 0 0 162.17 0c-2.39 0-4.682.267-6.808.752 1.159.709 2.267 1.39 3.273 2.005l4.602 2.818" id="Fill-5" fill="#F48023"/><path d="M158.796 9.26l.085-.016.088-.01.092-.006h.098c.13 0 .271.009.42.026.146.017.303.042.46.072a18.047 18.047 0 0 1 .984.22c.166.039.328.08.485.116.158.038.313.071.461.102.147.03.289.054.421.072.13.016.252.027.36.027.135-.01.265-.021.39-.035.125-.013.248-.03.365-.044l.343-.051c.11-.018.218-.035.323-.054-.611-.39-3.15-2.02-6.463-4.146-1.796-1.152-3.79-2.433-5.82-3.734-5.796 2.203-9.673 6.213-9.673 10.794l.002.07 9.634-1.976c3.995-.823 6.688-1.376 6.945-1.428" id="Fill-7" fill="#F48023"/><path d="M168.865 14.674c-.21-.14-.371-.365-.502-.635a5.93 5.93 0 0 1-.32-.883c-.09-.304-.174-.606-.272-.866-.095-.255-.207-.472-.354-.604a3.45 3.45 0 0 0-.204-.176c-.071-.061-.146-.12-.224-.182a8.234 8.234 0 0 0-.233-.175 10.955 10.955 0 0 0-.227-.167c-.213.663-1.063 3.317-2.318 7.217-.631 1.98-1.39 4.34-2.238 6.98.067 0 .131.003.197.003 6.28 0 11.881-1.832 15.539-4.695-1.062-.697-2.052-1.35-2.95-1.94l-5.894-3.877" id="Fill-9" fill="#F48023"/><path d="M163.77 12.149c.275-.184.492-.357.588-.511.04-.063.077-.13.114-.198l.112-.21.102-.215c.034-.071.065-.142.096-.21-.837.176-4.414.937-9.435 2.005l-12.595 2.68c1.705 4.567 7.34 8.17 14.535 9.314.743-1.994 1.409-3.78 1.97-5.281l2.075-5.57c.072-.195.277-.4.547-.606.27-.206.602-.413.94-.616.335-.201.673-.396.95-.582" id="Fill-11" fill="#F48023"/><g id="Group-15" transform="translate(0 1.56)"><mask id="mask-2" fill="#fff"><use xlink:href="#path-1"/></mask><path id="Fill-13" fill="#4E5154" mask="url(#mask-2)" d="M6.014 12.128h14.632v-3.93H6.014V5.162H21.46V.76H-.001v18.964h21.81v-4.558H6.015z"/></g><path d="M43.084 9.654c0 1.363-.596 1.991-2.222 1.991h-9.943V7.036h9.403c1.895 0 2.762.314 2.762 1.989v.63zm-.027-7.333H24.904v18.963h6.015v-4.923h9.457c1.87 0 2.465.655 2.465 2.646v2.277h6.015v-3.221c0-3.116-1.492-3.876-3.279-4.192v-.052c2.765-.627 3.36-2.121 3.36-4.66V7.952c0-3.405-1.247-5.631-5.88-5.631z" id="Fill-16" fill="#4E5154"/><mask id="mask-4" fill="#fff"><use xlink:href="#path-3"/></mask><path id="Fill-18" fill="#4E5154" mask="url(#mask-4)" d="M52.246 21.287h6.015V2.321h-6.015z"/><path d="M77.715 16.622h-6.42c-2.845 0-3.441-1.048-3.441-3.798v-2.043c0-2.358.596-3.799 3.766-3.799h6.557c1.787 0 2.819.393 2.819 1.755v.525h6.015c.053-5.37-1.058-7.15-9.62-7.15h-7.073c-5.418 0-8.642 1.31-8.642 6.861v5.659c0 5.555 3.224 6.863 8.642 6.863h9.702c6.041 0 7.234-2.515 7.234-5.711v-1.78H81.24c0 2.358-.813 2.618-3.525 2.618" id="Fill-20" fill="#4E5154" mask="url(#mask-4)"/><path id="Fill-21" fill="#4E5154" mask="url(#mask-4)" d="M114.407 2.32h-8.183l-7.587 6.967H95.82V2.32h-6.014v18.965h6.014v-7.283h2.657l8.669 7.283h8.508l-11.868-9.69z"/><path d="M128.663 9.498h-.596c-.566.003-1.087.004-1.567.004-5.005 0-5.614-.175-5.614-1.68 0-1.022.922-1.468 2.277-1.468h6.664c2.765 0 2.927.578 2.927 1.966h6.016v-.603c0-3.327-.65-5.606-7.586-5.606h-8.4c-7.587 0-7.912 2.645-7.912 6.076 0 4.664 1.03 5.712 10.078 5.712 7.749 0 8.456.102 8.456 1.755 0 1.466-1.302 1.598-2.576 1.598h-7.37c-1.734 0-2.574-.158-2.6-2.176h-6.015v1.313c0 4.111 2.195 5.105 7.667 5.105h7.29c7.991 0 9.782-.837 9.782-5.945 0-5.408-2.077-6.051-10.92-6.051" id="Fill-22" fill="#4E5154" mask="url(#mask-4)"/><path id="Fill-23" fill="#4E5154" mask="url(#mask-4)" d="M205.758 16.1h-.055L194.405 2.32h-9.32v18.965h6.015V7.508h.052l11.3 13.777h9.32V2.32h-6.014z"/><path d="M215.716 3.559a.24.24 0 0 1-.25.246h-.472v-.492h.472c.15 0 .25.099.25.246m.504-.006c0-.458-.365-.699-.727-.699h-.834a.139.139 0 0 0-.14.14v1.853c0 .077.061.14.14.14h.208a.14.14 0 0 0 .138-.14v-.606h.298l.275.647c.02.047.07.099.13.099h.254c.05 0 .098-.027.123-.069a.126.126 0 0 0 .002-.129 57.523 57.523 0 0 0-.285-.598.65.65 0 0 0 .418-.638" id="Fill-24" fill="#4E5154" mask="url(#mask-4)"/><path d="M216.887 3.926a1.61 1.61 0 0 1-1.608 1.608 1.61 1.61 0 0 1-1.608-1.608 1.609 1.609 0 0 1 3.215 0M215.28 1.86a2.064 2.064 0 0 0 0 4.127c1.14 0 2.067-.925 2.067-2.06a2.07 2.07 0 0 0-2.067-2.067" id="Fill-25" fill="#4E5154" mask="url(#mask-4)"/></g></g></svg>
